img/ung-barg.svg

<svg width="300" height="395" viewBox="0 0 300 395" fill="none" xmlns="http://www.w3.org/2000/svg">
<g clip-path="url(#clip0_1_1361)">
<path d="M322.764 521.404C257.431 530.694 187.882 490.963 148.925 422.093C147.128 418.919 145.317 415.36 145.493 411.512C145.957 401.064 158.749 400.657 163.478 392.237C170.31 380.073 156.331 365.426 144.725 361.049C128.792 355.034 111.122 350.684 99.983 334.873C85.7408 314.629 88.0658 283.937 94.5084 258.875C100.951 233.814 110.719 208.891 108.501 182.343C106.754 161.659 100.446 133.668 115.448 125.848C124.563 121.103 134.901 129.19 142.279 138.028C166.076 166.537 181.287 207.36 210.086 226.964C230.502 240.859 254.768 241.772 275.828 253.974C299.379 267.619 316.943 294.279 329.976 322.61C341.277 347.115 349.989 374.343 350.355 402.306C350.721 430.269 341.666 459.068 323.39 474.116" fill="#194429"/>
<path d="M160.435 695.476C195.796 663.676 226.193 624.596 250.219 580.048C263.79 554.858 275.23 528.109 286.128 501.126C293.845 482.046 301.376 462.643 305.419 441.998C309.161 422.934 309.856 403.213 310.088 383.621C310.486 350.484 309.625 317.376 307.503 284.299C304.988 245.002 300.422 204.854 284.924 170.129C279.649 158.3 272.15 146.404 261.243 143.43C245.592 139.153 231.206 154.925 222.226 170.915C209.419 193.748 200.865 219.528 192.769 245.264C165.289 332.651 141.645 424.761 147.953 517.823" fill="#198C36"/>
<path d="M231.957 507.158C238.95 484.992 245.015 462.444 250.15 439.514C255.285 416.583 259.453 393.378 262.655 369.898C265.885 346.507 268.151 322.974 269.454 299.297C270.757 275.62 271.085 251.934 270.436 228.239C269.783 204.497 268.148 180.783 265.531 157.231C265.223 154.301 264.883 151.37 264.512 148.437C264.049 144.722 259.334 146.087 259.784 149.779C262.615 173.071 264.47 196.519 265.342 220.035C266.206 243.515 266.107 267.006 265.045 290.509C263.98 314.055 261.959 337.515 258.982 360.887C256.024 384.07 252.115 407.038 247.255 429.79C242.395 452.542 236.607 474.988 229.891 497.128C229.048 499.909 228.188 502.693 227.311 505.481C226.195 508.973 230.85 510.65 231.957 507.158Z" fill="#153A23"/>
<path d="M270.27 229.453C273.674 216.855 274.137 213.926 279.301 202.264C279.908 200.877 286.93 185.929 285.758 185.066C284.706 184.281 278.63 193.687 278.014 195.091C272.66 207.181 269.149 214.7 265.619 227.76C264.656 231.307 269.302 233.001 270.27 229.453Z" fill="#153A23"/>
<path d="M269.561 301.502C273.132 284.544 274.656 278.111 280.214 262.016C280.714 260.563 288.319 243.688 287.161 243.259C285.804 242.763 281.631 249.853 280.899 251.167C268.329 273.673 268.468 282.845 264.892 299.804C264.137 303.435 268.778 305.145 269.561 301.502Z" fill="#153A23"/>
<path d="M264.897 352.427C270.096 332.447 276.125 312.793 282.96 293.538C284.878 288.136 284.813 288.097 286.865 282.762C287.416 281.336 290.672 270.821 289.468 269.925C288.453 269.173 282.298 280.985 281.742 282.422C274.332 301.742 270.723 313.42 264.948 333.536C263.314 339.239 261.747 344.968 260.247 350.723C259.311 354.315 263.966 356.014 264.897 352.427Z" fill="#153A23"/>
<path d="M257.736 397.243C267.597 382.841 279.635 361.333 286.73 344.748C297.981 318.416 286.045 333.609 282.599 341.685C275.693 357.835 266.416 372.343 256.829 386.35C255.99 387.564 255.763 389.235 256.741 390.471C257.56 391.501 256.24 395.094 257.079 393.868L257.741 397.243H257.736Z" fill="#153A23"/>
<path d="M211.707 419.977C154.78 434.958 92.8457 419.849 45.2186 379.372C25.9834 363.026 8.16556 340.76 4.37689 312.758C3.95078 309.583 3.80256 305.986 5.51164 303.513C6.94744 301.463 9.26326 300.739 11.4262 300.238C62.1704 288.353 112.215 324.915 149.486 368.127C140.957 343.6 136.713 317.225 137.018 290.642C137.11 283.051 139.38 273.194 145.674 272.96C149.569 272.815 152.622 276.758 155.081 280.434C178.798 316.116 197.019 356.608 208.887 400" fill="#1F7A36"/>
<path d="M5.17354 304.259C30.2353 296.546 56.9042 301.792 80.4468 313.766C104.893 326.191 126.096 345.895 145.452 367.453C156.637 379.912 167.29 393.072 177.924 406.193C180.268 409.095 184.168 405.519 183.172 401.972C174.784 371.981 166.1 342.097 157.985 311.995C151.658 288.537 148.791 293.171 153.923 313.849C161.435 344.18 168.601 374.554 176.998 404.522L182.255 400.301C163.07 376.581 143.729 352.717 121.427 333.186C99.6217 314.106 74.8147 299.269 47.9374 294.435C32.9726 291.745 17.7438 292.285 3.05688 296.808C1.34781 297.331 0.490961 299.91 1.0236 301.82C1.63497 303.953 3.46447 304.783 5.17354 304.259Z" fill="#163A24"/>
<path d="M217.27 411.623C193.513 411.572 169.852 407.999 146.823 400.986C123.759 393.989 101.488 383.649 80.4977 370.193C68.7519 362.669 63.5691 362.853 50.4848 351.197C49.0953 349.938 35.432 337.274 34.1768 338.994C33.0976 340.465 40.9297 349.387 42.3701 350.645C62.0353 367.911 83.3934 382.199 105.962 393.189C128.611 404.222 152.295 411.89 176.488 416.023C190.138 418.325 203.904 419.482 217.687 419.487C221.855 419.487 221.461 411.623 217.27 411.623Z" fill="#194429"/>
<path d="M69.6736 345.294C87.8574 359.601 101.766 380.129 118.144 397.088C121.335 400.39 132.58 400.702 129.38 397.394C112.535 379.99 96.4352 359.167 77.728 344.447C76.2505 343.283 63.1198 335.425 62.3834 337.174C61.5034 339.212 68.1915 344.13 69.6736 345.294Z" fill="#194429"/>
<path d="M118.222 365.766C131.941 381.627 137.133 394.542 151.315 408.02C154.609 411.144 169.527 412.13 166.215 408.983C152.024 395.511 136.24 376.554 122.836 361.957C110.256 348.256 102.498 346.881 118.222 365.766Z" fill="#194429"/>
<path d="M53.977 255.072C53.6528 249.324 53.7408 239.077 54.2781 233.352C54.3892 232.238 54.8154 230.818 55.7463 230.912C56.5985 230.985 56.8903 232.293 56.9737 233.307C57.5017 239.712 58.0081 246.127 58.4929 252.554C62.9993 250.139 67.9278 249.081 72.8509 249.475C72.9885 249.488 73.1204 249.546 73.2327 249.642C73.3449 249.739 73.4331 249.87 73.4879 250.023C73.5426 250.175 73.5619 250.342 73.5435 250.507C73.5251 250.671 73.4698 250.826 73.3836 250.956C71.3505 253.987 68.5846 256.184 65.4681 257.244C64.3426 257.617 63.055 257.973 62.5039 259.204C62.1426 260 62.2306 260.958 62.2954 261.855C62.7423 267.412 62.571 273.016 61.786 278.518C61.7501 278.729 61.6619 278.923 61.533 279.073C61.4041 279.223 61.2405 279.322 61.0637 279.359C60.8868 279.395 60.705 279.366 60.5421 279.275C60.3793 279.185 60.2429 279.038 60.151 278.852C57.9649 274.597 58.215 268.711 56.7097 263.815C56.5821 263.247 56.3081 262.742 55.9269 262.373C55.3757 262.04 54.7454 261.947 54.1438 262.111C49.4394 262.725 44.7033 262.911 39.9756 262.668C38.6973 262.596 36.9512 261.649 37.4838 260.284C37.6789 259.879 37.9755 259.557 38.3314 259.365C40.7611 257.715 43.4359 256.652 46.2052 256.236L53.977 255.072Z" fill="#FBC8B8"/>
<path d="M279.403 84.0954C280.603 76.4822 283.613 63.1717 285.938 55.9317C286.402 54.5338 287.328 52.8519 288.537 53.3532C289.621 53.7987 289.644 55.6198 289.463 56.9732C288.327 65.5127 287.17 74.0726 285.994 82.653C292.544 81.3477 299.26 81.9863 305.558 84.5131C305.732 84.588 305.886 84.7183 306.004 84.8901C306.121 85.0618 306.198 85.2687 306.225 85.4886C306.253 85.7086 306.23 85.9334 306.16 86.1391C306.09 86.3449 305.975 86.524 305.827 86.6573C302.326 89.774 298.107 91.5043 293.752 91.6083C292.177 91.6083 290.403 91.5693 289.333 92.9449C288.643 93.8416 288.486 95.1169 288.314 96.2865C287.325 103.704 285.516 110.93 282.937 117.773C282.831 118.032 282.662 118.247 282.453 118.39C282.243 118.532 282.003 118.595 281.763 118.57C281.523 118.545 281.295 118.434 281.109 118.251C280.923 118.068 280.787 117.822 280.719 117.544C279.074 111.106 281.061 103.543 280.482 96.5984C280.473 95.8057 280.258 95.0365 279.866 94.3985C279.315 93.6634 278.431 93.4684 277.62 93.3237C271.323 92.2016 265.105 90.5112 259.019 88.2668C257.384 87.6486 255.37 85.6993 256.449 84.14C256.817 83.6913 257.294 83.3932 257.81 83.2879C261.447 82.129 265.238 81.8358 268.968 82.4246L279.403 84.0954Z" fill="#FBC8B8"/>
<path d="M13.9598 374.253C9.90249 378.87 10.8983 388.633 17.855 386.294C28.1187 382.825 20.9119 366.345 13.9598 374.253Z" fill="#F7BC28"/>
<path d="M175.103 222.725C171.449 223.098 168.508 228.617 172.788 230.845C179.156 234.142 181.361 222.096 175.103 222.725Z" fill="#F7BC28"/>
<path d="M188.707 169.138C184.649 173.761 185.65 183.523 192.602 181.179C202.865 177.709 195.659 161.235 188.707 169.138Z" fill="#F7BC28"/>
</g>
<defs>
<clipPath id="clip0_1_1361">
<rect width="300" height="400" fill="white"/>
</clipPath>
</defs>
</svg>

<svg width="300" height="395" fill="none" xmlns="http://www.w3.org/2000/svg"><g clip-path="url(#a)"><path d="M322.764 521.404c-65.333 9.29-134.882-30.441-173.839-99.311-1.797-3.174-3.608-6.733-3.432-10.581.464-10.448 13.256-10.855 17.985-19.275 6.832-12.164-7.147-26.811-18.753-31.188-15.933-6.015-33.603-10.365-44.742-26.176-14.242-20.244-11.917-50.936-5.475-75.998 6.443-25.061 16.211-49.984 13.993-76.532-1.747-20.684-8.055-48.675 6.947-56.495 9.115-4.745 19.453 3.342 26.831 12.18 23.797 28.509 39.008 69.332 67.807 88.936 20.416 13.895 44.682 14.808 65.742 27.01 23.551 13.645 41.115 40.305 54.148 68.636 11.301 24.505 20.013 51.733 20.379 79.696.366 27.963-8.689 56.762-26.965 71.81" fill="#194429"/><path d="M160.435 695.476c35.361-31.8 65.758-70.88 89.784-115.428 13.571-25.19 25.011-51.939 35.909-78.922 7.717-19.08 15.248-38.483 19.291-59.128 3.742-19.064 4.437-38.785 4.669-58.377.398-33.137-.463-66.245-2.585-99.322-2.515-39.297-7.081-79.445-22.579-114.17-5.275-11.829-12.774-23.725-23.681-26.699-15.651-4.277-30.037 11.495-39.017 27.485-12.807 22.833-21.361 48.613-29.457 74.349-27.48 87.387-51.124 179.497-44.816 272.559" fill="#198C36"/><path d="M231.957 507.158a821.16 821.16 0 0 0 18.193-67.644 834.327 834.327 0 0 0 12.505-69.616 862.288 862.288 0 0 0 6.799-70.601 862.737 862.737 0 0 0 .982-71.058 856.54 856.54 0 0 0-4.905-71.008c-.308-2.93-.648-5.861-1.019-8.794-.463-3.715-5.178-2.35-4.728 1.342a840.534 840.534 0 0 1 5.558 70.256c.864 23.48.765 46.971-.297 70.474a866.703 866.703 0 0 1-6.063 70.378 836.567 836.567 0 0 1-11.727 68.903 827.006 827.006 0 0 1-19.944 75.691c-1.116 3.492 3.539 5.169 4.646 1.677Z" fill="#153A23"/><path d="M270.27 229.453c3.404-12.598 3.867-15.527 9.031-27.189.607-1.387 7.629-16.335 6.457-17.198-1.052-.785-7.128 8.621-7.744 10.025-5.354 12.09-8.865 19.609-12.395 32.669-.963 3.547 3.683 5.241 4.651 1.693ZM269.561 301.502c3.571-16.958 5.095-23.391 10.653-39.486.5-1.453 8.105-18.328 6.947-18.757-1.357-.496-5.53 6.594-6.262 7.908-12.57 22.506-12.431 31.678-16.007 48.637-.755 3.631 3.886 5.341 4.669 1.698ZM264.897 352.427a712.178 712.178 0 0 1 18.063-58.889c1.918-5.402 1.853-5.441 3.905-10.776.551-1.426 3.807-11.941 2.603-12.837-1.015-.752-7.17 11.06-7.726 12.497-7.41 19.32-11.019 30.998-16.794 51.114a740.25 740.25 0 0 0-4.701 17.187c-.936 3.592 3.719 5.291 4.65 1.704ZM257.736 397.243c9.861-14.402 21.899-35.91 28.994-52.495 11.251-26.332-.685-11.139-4.131-3.063-6.906 16.15-16.183 30.658-25.77 44.665-.839 1.214-1.066 2.885-.088 4.121.819 1.03-.501 4.623.338 3.397l.662 3.375h-.005Z" fill="#153A23"/><path d="M211.707 419.977c-56.927 14.981-118.861-.128-166.488-40.605-19.236-16.346-37.053-38.612-40.842-66.614-.426-3.175-.574-6.772 1.135-9.245 1.435-2.05 3.751-2.774 5.914-3.275 50.744-11.885 100.789 24.677 138.06 67.889-8.529-24.527-12.773-50.902-12.468-77.485.092-7.591 2.362-17.448 8.656-17.682 3.895-.145 6.948 3.798 9.407 7.474 23.717 35.682 41.938 76.174 53.806 119.566" fill="#1F7A36"/><path d="M5.174 304.259c25.061-7.713 51.73-2.467 75.273 9.507 24.446 12.425 45.649 32.129 65.005 53.687 11.185 12.459 21.838 25.619 32.472 38.74 2.344 2.902 6.244-.674 5.248-4.221-8.388-29.991-17.072-59.875-25.187-89.977-6.327-23.458-9.194-18.824-4.062 1.854 7.512 30.331 14.678 60.705 23.075 90.673l5.257-4.221c-19.185-23.72-38.526-47.584-60.828-67.115-21.805-19.08-46.612-33.917-73.49-38.751-14.964-2.69-30.193-2.15-44.88 2.373-1.71.523-2.566 3.102-2.033 5.012.611 2.133 2.44 2.963 4.15 2.439Z" fill="#163A24"/><path d="M217.27 411.623c-23.757-.051-47.418-3.624-70.447-10.637-23.064-6.997-45.335-17.337-66.325-30.793-11.746-7.524-16.929-7.34-30.013-18.996-1.39-1.259-15.053-13.923-16.308-12.203-1.08 1.471 6.753 10.393 8.193 11.651 19.665 17.266 41.023 31.554 63.592 42.544 22.649 11.033 46.333 18.701 70.526 22.834a248.157 248.157 0 0 0 41.199 3.464c4.168 0 3.774-7.864-.417-7.864Z" fill="#194429"/><path d="M69.674 345.294c18.183 14.307 32.092 34.835 48.47 51.794 3.191 3.302 14.436 3.614 11.236.306-16.845-17.404-32.945-38.227-51.652-52.947-1.477-1.164-14.608-9.022-15.345-7.273-.88 2.038 5.809 6.956 7.29 8.12ZM118.222 365.766c13.719 15.861 18.911 28.776 33.093 42.254 3.294 3.124 18.212 4.11 14.9.963-14.191-13.472-29.975-32.429-43.379-47.026-12.58-13.701-20.338-15.076-4.614 3.809Z" fill="#194429"/><path d="M53.977 255.072c-.324-5.748-.236-15.995.301-21.72.111-1.114.537-2.534 1.468-2.44.852.073 1.144 1.381 1.228 2.395.528 6.405 1.034 12.82 1.519 19.247 4.506-2.415 9.435-3.473 14.358-3.079.138.013.27.071.382.167.112.097.2.228.255.381.055.152.074.319.055.484a1.02 1.02 0 0 1-.16.449c-2.032 3.031-4.798 5.228-7.915 6.288-1.125.373-2.413.729-2.964 1.96-.361.796-.273 1.754-.209 2.651a75.363 75.363 0 0 1-.509 16.663 1.148 1.148 0 0 1-.253.555.851.851 0 0 1-.47.286.753.753 0 0 1-.52-.084.965.965 0 0 1-.392-.423c-2.186-4.255-1.936-10.141-3.441-15.037a2.882 2.882 0 0 0-.783-1.442 2.263 2.263 0 0 0-1.783-.262c-4.705.614-9.44.8-14.168.557-1.279-.072-3.025-1.019-2.492-2.384.195-.405.491-.727.847-.919 2.43-1.65 5.105-2.713 7.874-3.129l7.772-1.164ZM279.403 84.095c1.2-7.613 4.21-20.923 6.535-28.163.464-1.398 1.39-3.08 2.599-2.579 1.084.446 1.107 2.267.926 3.62-1.136 8.54-2.293 17.1-3.469 25.68 6.55-1.305 13.266-.667 19.564 1.86.174.075.328.205.446.377.117.172.194.379.221.599.028.22.005.444-.065.65-.07.206-.185.385-.333.518-3.501 3.117-7.72 4.847-12.075 4.951-1.575 0-3.349-.039-4.419 1.337-.69.897-.847 2.172-1.019 3.342-.989 7.417-2.798 14.643-5.377 21.486a1.37 1.37 0 0 1-.484.617c-.21.142-.45.205-.69.18a1.096 1.096 0 0 1-.654-.319 1.484 1.484 0 0 1-.39-.707c-1.645-6.438.342-14.001-.237-20.946a4.314 4.314 0 0 0-.616-2.2c-.551-.735-1.435-.93-2.246-1.074a109.016 109.016 0 0 1-18.601-5.057c-1.635-.618-3.649-2.568-2.57-4.127.368-.449.845-.747 1.361-.852a24.189 24.189 0 0 1 11.158-.863l10.435 1.67Z" fill="#FBC8B8"/><path d="M13.96 374.253c-4.058 4.617-3.062 14.38 3.895 12.041 10.264-3.469 3.057-19.949-3.895-12.041ZM175.103 222.725c-3.654.373-6.595 5.892-2.315 8.12 6.368 3.297 8.573-8.749 2.315-8.12ZM188.707 169.138c-4.058 4.623-3.057 14.385 3.895 12.041 10.263-3.47 3.057-19.944-3.895-12.041Z" fill="#F7BC28"/></g><defs><clipPath id="a"><path fill="#fff" d="M0 0h300v400H0z"/></clipPath></defs></svg>
